public/icons/logo_app.svg

<svg xmlns="http://www.w3.org/2000/svg" xmlns:xlink="http://www.w3.org/1999/xlink" width="500" zoomAndPan="magnify" viewBox="112.363281 112.363281 150.273438 150.273438" height="500" preserveAspectRatio="xMidYMid meet" version="1.0"><defs><g/><clipPath id="69fdc46379"><path d="M 112.363281 112.363281 L 262.636719 112.363281 L 262.636719 262.636719 L 112.363281 262.636719 Z M 112.363281 112.363281 " clip-rule="nonzero"/></clipPath><clipPath id="3877387c0f"><path d="M 129.613281 112.363281 L 245.386719 112.363281 C 254.914062 112.363281 262.636719 120.085938 262.636719 129.613281 L 262.636719 245.386719 C 262.636719 254.914062 254.914062 262.636719 245.386719 262.636719 L 129.613281 262.636719 C 120.085938 262.636719 112.363281 254.914062 112.363281 245.386719 L 112.363281 129.613281 C 112.363281 120.085938 120.085938 112.363281 129.613281 112.363281 Z M 129.613281 112.363281 " clip-rule="nonzero"/></clipPath><clipPath id="0cca8add6d"><path d="M 0.363281 0.363281 L 150.636719 0.363281 L 150.636719 150.636719 L 0.363281 150.636719 Z M 0.363281 0.363281 " clip-rule="nonzero"/></clipPath><clipPath id="e0ef3f16f5"><path d="M 17.613281 0.363281 L 133.386719 0.363281 C 142.914062 0.363281 150.636719 8.085938 150.636719 17.613281 L 150.636719 133.386719 C 150.636719 142.914062 142.914062 150.636719 133.386719 150.636719 L 17.613281 150.636719 C 8.085938 150.636719 0.363281 142.914062 0.363281 133.386719 L 0.363281 17.613281 C 0.363281 8.085938 8.085938 0.363281 17.613281 0.363281 Z M 17.613281 0.363281 " clip-rule="nonzero"/></clipPath><clipPath id="6cf2896880"><rect x="0" width="151" y="0" height="151"/></clipPath><clipPath id="e832ff4623"><path d="M 112.363281 112.363281 L 262.363281 112.363281 L 262.363281 262.363281 L 112.363281 262.363281 Z M 112.363281 112.363281 " clip-rule="nonzero"/></clipPath><clipPath id="b0e797d18c"><path d="M 129.613281 112.363281 L 245.382812 112.363281 C 254.910156 112.363281 262.632812 120.085938 262.632812 129.613281 L 262.632812 245.382812 C 262.632812 254.910156 254.910156 262.632812 245.382812 262.632812 L 129.613281 262.632812 C 120.085938 262.632812 112.363281 254.910156 112.363281 245.382812 L 112.363281 129.613281 C 112.363281 120.085938 120.085938 112.363281 129.613281 112.363281 Z M 129.613281 112.363281 " clip-rule="nonzero"/></clipPath><clipPath id="459b11b55e"><path d="M 204.074219 164.523438 L 243.203125 164.523438 L 243.203125 216.949219 L 204.074219 216.949219 Z M 204.074219 164.523438 " clip-rule="nonzero"/></clipPath><clipPath id="b8d33eaf24"><path d="M 223.640625 216.847656 L 243.203125 197.28125 L 233.421875 197.28125 L 233.421875 164.523438 L 213.855469 164.523438 L 213.855469 197.28125 L 204.074219 197.28125 Z M 223.640625 216.847656 " clip-rule="nonzero"/></clipPath><clipPath id="8fdda4ab32"><path d="M 0.0742188 0.523438 L 39.203125 0.523438 L 39.203125 52.949219 L 0.0742188 52.949219 Z M 0.0742188 0.523438 " clip-rule="nonzero"/></clipPath><clipPath id="2b84d311d5"><path d="M 19.640625 52.847656 L 39.203125 33.28125 L 29.421875 33.28125 L 29.421875 0.523438 L 9.855469 0.523438 L 9.855469 33.28125 L 0.0742188 33.28125 Z M 19.640625 52.847656 " clip-rule="nonzero"/></clipPath><clipPath id="839f8f0739"><rect x="0" width="40" y="0" height="53"/></clipPath><clipPath id="1ddffb10fb"><rect x="0" width="65" y="0" height="87"/></clipPath></defs><g clip-path="url(#69fdc46379)"><g clip-path="url(#3877387c0f)"><g transform="matrix(1, 0, 0, 1, 112, 112)"><g clip-path="url(#6cf2896880)"><g clip-path="url(#0cca8add6d)"><g clip-path="url(#e0ef3f16f5)"><path fill="#545454" d="M 0.363281 0.363281 L 150.636719 0.363281 L 150.636719 150.636719 L 0.363281 150.636719 Z M 0.363281 0.363281 " fill-opacity="1" fill-rule="nonzero"/></g></g></g></g></g></g><g clip-path="url(#e832ff4623)"><g clip-path="url(#b0e797d18c)"><path stroke-linecap="butt" transform="matrix(0.75, 0, 0, 0.75, 112.364133, 112.364129)" fill="none" stroke-linejoin="miter" d="M 22.998866 -0.00112983 L 177.358251 -0.00112983 C 190.061377 -0.00112983 200.358252 10.295746 200.358252 22.998872 L 200.358252 177.358257 C 200.358252 190.061383 190.061377 200.358258 177.358251 200.358258 L 22.998866 200.358258 C 10.29574 200.358258 -0.00113583 190.061383 -0.00113583 177.358257 L -0.00113583 22.998872 C -0.00113583 10.295746 10.29574 -0.00112983 22.998866 -0.00112983 Z M 22.998866 -0.00112983 " stroke="#ffffff" stroke-width="20" stroke-opacity="1" stroke-miterlimit="4"/></g></g><g clip-path="url(#459b11b55e)"><g clip-path="url(#b8d33eaf24)"><g transform="matrix(1, 0, 0, 1, 204, 164)"><g clip-path="url(#839f8f0739)"><g clip-path="url(#8fdda4ab32)"><g clip-path="url(#2b84d311d5)"><path fill="#ffffff" d="M 39.203125 0.523438 L 39.203125 52.796875 L 0.0742188 52.796875 L 0.0742188 0.523438 Z M 39.203125 0.523438 " fill-opacity="1" fill-rule="nonzero"/></g></g></g></g></g></g><g transform="matrix(1, 0, 0, 1, 131, 152)"><g clip-path="url(#1ddffb10fb)"><g fill="#ffffff" fill-opacity="1"><g transform="translate(0.0703621, 62.204019)"><g><path d="M 50.484375 0 L 47.84375 -33.28125 L 47.5 -33.28125 L 36 -0.34375 L 28.375 -0.34375 L 16.875 -33.28125 L 16.53125 -33.28125 L 13.875 0 L 1.09375 0 L 6.125 -56.140625 L 19.734375 -56.140625 L 32.1875 -23.75 L 44.640625 -56.140625 L 58.25 -56.140625 L 63.28125 0 Z M 50.484375 0 "/></g></g></g></g></g></svg>

<svg xmlns="http://www.w3.org/2000/svg" width="500" height="500" viewBox="112.363 112.363 150.273 150.273"><defs><clipPath id="69fdc46379"><path d="M112.363 112.363h150.274v150.274H112.363Zm0 0"/></clipPath><clipPath id="3877387c0f"><path d="M129.613 112.363h115.774c9.527 0 17.25 7.723 17.25 17.25v115.774c0 9.527-7.723 17.25-17.25 17.25H129.613c-9.527 0-17.25-7.723-17.25-17.25V129.613c0-9.527 7.723-17.25 17.25-17.25m0 0"/></clipPath><clipPath id="0cca8add6d"><path d="M.363.363h150.274v150.274H.363Zm0 0"/></clipPath><clipPath id="e0ef3f16f5"><path d="M17.613.363h115.774c9.527 0 17.25 7.723 17.25 17.25v115.774c0 9.527-7.723 17.25-17.25 17.25H17.613c-9.527 0-17.25-7.723-17.25-17.25V17.613c0-9.527 7.723-17.25 17.25-17.25m0 0"/></clipPath><clipPath id="6cf2896880"><path d="M0 0h151v151H0z"/></clipPath><clipPath id="e832ff4623"><path d="M112.363 112.363h150v150h-150Zm0 0"/></clipPath><clipPath id="b0e797d18c"><path d="M129.613 112.363h115.77c9.527 0 17.25 7.723 17.25 17.25v115.77c0 9.527-7.723 17.25-17.25 17.25h-115.77c-9.527 0-17.25-7.723-17.25-17.25v-115.77c0-9.527 7.723-17.25 17.25-17.25m0 0"/></clipPath><clipPath id="459b11b55e"><path d="M204.074 164.523h39.13v52.426h-39.13Zm0 0"/></clipPath><clipPath id="b8d33eaf24"><path d="m223.64 216.848 19.563-19.567h-9.781v-32.758h-19.567v32.758h-9.78Zm0 0"/></clipPath><clipPath id="8fdda4ab32"><path d="M.074.523h39.13V52.95H.073Zm0 0"/></clipPath><clipPath id="2b84d311d5"><path d="M19.64 52.848 39.204 33.28h-9.781V.523H9.855v32.758H.075Zm0 0"/></clipPath><clipPath id="839f8f0739"><path d="M0 0h40v53H0z"/></clipPath><clipPath id="1ddffb10fb"><path d="M0 0h65v87H0z"/></clipPath></defs><g clip-path="url(#69fdc46379)"><g clip-path="url(#3877387c0f)"><g clip-path="url(#6cf2896880)" transform="translate(112 112)"><g clip-path="url(#0cca8add6d)"><g clip-path="url(#e0ef3f16f5)"><path fill="#545454" d="M.363.363h150.274v150.274H.363Zm0 0"/></g></g></g></g></g><g clip-path="url(#e832ff4623)"><g clip-path="url(#b0e797d18c)"><path fill="none" stroke="#fff" stroke-width="15" d="M129.613 112.363h115.77c9.527 0 17.25 7.723 17.25 17.25v115.77c0 9.527-7.723 17.25-17.25 17.25h-115.77c-9.527 0-17.25-7.723-17.25-17.25v-115.77c0-9.527 7.723-17.25 17.25-17.25Zm0 0"/></g></g><g clip-path="url(#459b11b55e)"><g clip-path="url(#b8d33eaf24)"><g clip-path="url(#839f8f0739)" transform="translate(204 164)"><g clip-path="url(#8fdda4ab32)"><g clip-path="url(#2b84d311d5)"><path fill="#fff" d="M39.203.523v52.274H.074V.523Zm0 0"/></g></g></g></g></g><g clip-path="url(#1ddffb10fb)" transform="translate(131 152)"><path fill="#fff" d="m50.555 62.204-2.64-33.281h-.345L36.07 61.86h-7.625l-11.5-32.937h-.343l-2.657 33.281H1.165l5.03-56.14h13.61l12.453 32.39L44.71 6.064h13.61l5.03 56.14Zm0 0"/></g></svg>
